images/social_sprite.svg

<svg width="0" height="0" class="hidden">
  <symbol fill="none" xmlns="http://www.w3.org/2000/svg" viewBox="0 0 30 30" id="twitter">
    <g clip-path="url(#clip0_20_781)">
      <path d="M26.7857 0H3.21429C1.43973 0 0 1.43973 0 3.21429V26.7857C0 28.5603 1.43973 30 3.21429 30H26.7857C28.5603 30 30 28.5603 30 26.7857V3.21429C30 1.43973 28.5603 0 26.7857 0ZM23.5112 10.6339C23.5246 10.8214 23.5246 11.0156 23.5246 11.2031C23.5246 17.0089 19.1049 23.6987 11.029 23.6987C8.53795 23.6987 6.22768 22.9754 4.28571 21.7299C4.64062 21.7701 4.98214 21.7835 5.34375 21.7835C7.39955 21.7835 9.28795 21.0871 10.7946 19.9085C8.86607 19.8683 7.24554 18.6027 6.68973 16.8616C7.36607 16.9621 7.97545 16.9621 8.67188 16.7812C6.66295 16.3728 5.15625 14.6049 5.15625 12.4687V12.4152C5.73884 12.7433 6.42187 12.9442 7.13839 12.971C6.536 12.5703 6.04218 12.0267 5.70098 11.3887C5.35979 10.7507 5.18185 10.0382 5.18304 9.31473C5.18304 8.49777 5.39732 7.74777 5.77902 7.09821C7.94196 9.76339 11.1897 11.5045 14.8326 11.692C14.2098 8.71205 16.4397 6.29464 19.1183 6.29464C20.3839 6.29464 21.5223 6.82366 22.3259 7.6808C23.317 7.4933 24.2679 7.125 25.1116 6.62277C24.7835 7.64062 24.0938 8.49777 23.183 9.04018C24.067 8.94643 24.9241 8.69866 25.7143 8.35714C25.1183 9.23438 24.3683 10.0112 23.5112 10.6339Z" fill="black"></path>
    </g>
    <defs>
      <clipPath id="clip0_20_781">
        <rect width="30" height="30" fill="white"></rect>
      </clipPath>
    </defs>
  </symbol>
  <symbol fill="none" xmlns="http://www.w3.org/2000/svg" viewBox="0 0 30 30" id="vk">
    <g clip-path="url(#clip0_20_777)">
      <path d="M19.605 0H10.395C1.99 0 0 1.99 0 10.395V19.605C0 28.01 1.99 30 10.395 30H19.605C28.01 30 30 28.01 30 19.605V10.395C30 1.99 27.9888 0 19.605 0ZM24.22 21.4037H22.04C21.215 21.4037 20.96 20.7475 19.4775 19.245C18.1862 17.995 17.615 17.8263 17.2975 17.8263C16.8525 17.8263 16.725 17.9538 16.725 18.5675V20.5363C16.725 21.0663 16.5562 21.3838 15.1587 21.3838C12.8512 21.3838 10.2887 19.9862 8.49 17.3813C5.78 13.5712 5.0375 10.7125 5.0375 10.12C5.0375 9.8025 5.165 9.50625 5.77875 9.50625H7.95875C8.50875 9.50625 8.72125 9.76 8.93375 10.3525C10.0125 13.465 11.8125 16.1962 12.5538 16.1962C12.8288 16.1962 12.9562 16.0688 12.9562 15.3713V12.1512C12.8713 10.6687 12.0875 10.5425 12.0875 10.0138C12.0875 9.75875 12.3 9.505 12.6375 9.505H16.0675C16.5338 9.505 16.7025 9.75875 16.7025 10.3088V14.65C16.7025 15.115 16.915 15.285 17.0413 15.285C17.3162 15.285 17.55 15.115 18.0575 14.6075C19.625 12.85 20.7463 10.14 20.7463 10.14C20.895 9.8225 21.1488 9.52625 21.7 9.52625H23.88C24.5362 9.52625 24.685 9.86375 24.5362 10.33C24.2612 11.6012 21.5938 15.3687 21.5938 15.3687C21.3612 15.75 21.2762 15.9187 21.5938 16.3438C21.8263 16.6612 22.5888 17.3175 23.0975 17.91C24.0288 18.9688 24.7475 19.8575 24.9388 20.4725C25.1513 21.085 24.8325 21.4025 24.2188 21.4025L24.22 21.4037Z" fill="black"></path>
    </g>
    <defs>
      <clipPath id="clip0_20_777">
        <rect width="30" height="30" fill="white"></rect>
      </clipPath>
    </defs>
  </symbol>
  <symbol fill="none" xmlns="http://www.w3.org/2000/svg" viewBox="0 0 30 30" id="youtube">
    <path d="M23.6578 22.3834H22.1129L22.1201 21.4793C22.1201 21.0774 22.4475 20.7487 22.8478 20.7487H22.9463C23.3472 20.7487 23.6756 21.0774 23.6756 21.4793L23.6578 22.3834ZM17.8639 20.4459C17.472 20.4459 17.1515 20.7112 17.1515 21.0361V25.4335C17.1515 25.7577 17.472 26.0225 17.8639 26.0225C18.2573 26.0225 18.5781 25.7577 18.5781 25.4335V21.0361C18.5781 20.7109 18.2573 20.4459 17.8639 20.4459ZM27.2729 17.9861V26.3515C27.2729 28.3581 25.546 30 23.4357 30H7.65584C5.54461 30 3.81836 28.3581 3.81836 26.3515V17.9861C3.81836 15.9795 5.54461 14.3373 7.65584 14.3373H23.4357C25.546 14.3373 27.2729 15.9795 27.2729 17.9861ZM8.70848 27.2598L8.70723 18.4478L10.6633 18.4484V17.1428L5.44892 17.1349V18.4185L7.07667 18.4232V27.2598H8.70848ZM14.5721 19.7604H12.9412V24.4659C12.9412 25.1467 12.9822 25.487 12.9387 25.6071C12.8061 25.9721 12.2101 26.3594 11.9777 25.6465C11.9383 25.5217 11.973 25.1451 11.9724 24.4984L11.9658 19.7604H10.344L10.349 24.4237C10.3503 25.1385 10.3331 25.6717 10.3547 25.9141C10.3944 26.3417 10.3803 26.8406 10.774 27.1252C11.5077 27.6581 12.914 27.0458 13.2659 26.2844L13.2627 27.256L14.5724 27.2576V19.7604H14.5721ZM19.7893 25.1489L19.7859 21.2325C19.7847 19.7399 18.6767 18.8458 17.1724 20.0535L17.179 17.1418L15.5497 17.1443L15.5419 27.1945L16.8813 27.1747L17.0033 26.5488C18.7157 28.1318 19.7918 27.0473 19.7893 25.1489ZM24.8934 24.6298L23.6703 24.6364C23.6697 24.6853 23.6681 24.7417 23.6675 24.8032V25.4908C23.6675 25.8586 23.3657 26.1583 22.9992 26.1583H22.7596C22.3925 26.1583 22.091 25.8586 22.091 25.4908V25.4145V24.6582V23.6822H24.8912V22.6201C24.8912 21.8439 24.8715 21.068 24.8077 20.6242C24.6075 19.2206 22.6524 18.9977 21.6648 19.7163C21.3545 19.9407 21.1178 20.241 20.9802 20.6447C20.841 21.0484 20.7722 21.6 20.7722 22.3005V24.6355C20.7726 28.5175 25.4516 27.9689 24.8934 24.6298ZM18.6207 11.9519C18.7048 12.158 18.8355 12.325 19.0128 12.4511C19.188 12.5753 19.4122 12.6377 19.6802 12.6377C19.9154 12.6377 20.1236 12.5737 20.305 12.4417C20.4858 12.3102 20.6381 12.1139 20.7622 11.852L20.7316 12.4968H22.5495V4.70594H21.1184V10.7695C21.1184 11.0978 20.8501 11.3667 20.5221 11.3667C20.1959 11.3667 19.9266 11.0978 19.9266 10.7695V4.70594H18.433V9.96078C18.433 10.6302 18.4449 11.0764 18.4646 11.3027C18.4856 11.5274 18.5366 11.743 18.6207 11.9519ZM13.1117 7.55176C13.1117 6.80391 13.1736 6.21993 13.2965 5.79889C13.4203 5.37942 13.6427 5.04221 13.9648 4.78788C14.286 4.53229 14.6972 4.40434 15.1973 4.40434C15.6179 4.40434 15.9781 4.48754 16.2793 4.65048C16.5817 4.81436 16.8147 5.02708 16.9767 5.2896C17.1415 5.55307 17.2534 5.82379 17.3132 6.1008C17.3742 6.3816 17.4042 6.80517 17.4042 7.37654V9.34686C17.4042 10.0695 17.3754 10.6012 17.3197 10.9387C17.2644 11.2772 17.1455 11.5911 16.9617 11.8854C16.78 12.1766 16.5457 12.3944 16.2618 12.5334C15.9747 12.6736 15.6463 12.7423 15.2754 12.7423C14.8611 12.7423 14.5121 12.6846 14.2244 12.5642C13.9357 12.4445 13.7127 12.2639 13.5539 12.0241C13.3934 11.7839 13.2806 11.4915 13.2124 11.1505C13.1439 10.8098 13.1114 10.2974 13.1114 9.61443V7.55176H13.1117ZM14.5355 10.6465C14.5355 11.0878 14.8614 11.448 15.2582 11.448C15.6554 11.448 15.9797 11.0878 15.9797 10.6465V6.49916C15.9797 6.05857 15.6554 5.69836 15.2582 5.69836C14.8614 5.69836 14.5355 6.05857 14.5355 6.49916V10.6465ZM9.50437 12.7407H11.2194L11.2212 6.76546L13.2477 1.64677H11.372L10.2946 5.44876L9.20196 1.63637H7.34561L9.50155 6.7683L9.50437 12.7407Z" fill="black"></path>
  </symbol>
  <symbol fill="none" xmlns="http://www.w3.org/2000/svg" viewBox="0 0 30 30" id="facebook">
    <g clip-path="url(#clip0_20_779)">
      <path d="M5.47782 0C2.44335 0 0 2.44335 0 5.47782V24.5222C0 27.5567 2.44335 30 5.47782 30H15.7997V18.2719H12.6985V14.0494H15.7997V10.4419C15.7997 7.60764 17.6321 5.00532 21.8531 5.00532C23.5622 5.00532 24.826 5.16939 24.826 5.16939L24.7266 9.11253C24.7266 9.11253 23.4377 9.10035 22.0312 9.10035C20.5091 9.10035 20.265 9.80169 20.265 10.966V14.0494H24.8475L24.6478 18.2719H20.265V30.0001H24.5222C27.5567 30.0001 30 27.5567 30 24.5222V5.47785C30 2.44338 27.5567 3e-05 24.5222 3e-05H5.47779L5.47782 0Z" fill="black"></path>
    </g>
    <defs>
      <clipPath id="clip0_20_779">
        <rect width="30" height="30" fill="white"></rect>
      </clipPath>
    </defs>
  </symbol>
  <symbol fill="none" xmlns="http://www.w3.org/2000/svg" viewBox="0 0 30 30" id="instagram">
    <g clip-path="url(#clip0_20_785)">
      <path d="M15 11.4281C14.2936 11.4284 13.6032 11.6381 13.0159 12.0307C12.4287 12.4234 11.9711 12.9813 11.701 13.634C11.4308 14.2867 11.3603 15.0049 11.4983 15.6977C11.6362 16.3904 11.9765 17.0268 12.4761 17.5262C12.9757 18.0256 13.6122 18.3656 14.305 18.5033C14.9978 18.6411 15.7159 18.5702 16.3685 18.2999C17.0211 18.0295 17.5789 17.5717 17.9713 16.9843C18.3638 16.3969 18.5732 15.7064 18.5732 15C18.5725 14.0527 18.1958 13.1444 17.5258 12.4746C16.8558 11.8049 15.9473 11.4285 15 11.4281ZM23.3511 8.68259C23.1693 8.22177 22.8947 7.80323 22.5444 7.45293C22.1941 7.10263 21.7756 6.82804 21.3147 6.6462C19.9085 6.09107 16.5603 6.21562 15 6.21562C13.4397 6.21562 10.0949 6.08638 8.6846 6.6462C8.22378 6.82804 7.80524 7.10263 7.45494 7.45293C7.10464 7.80323 6.83005 8.22177 6.64821 8.68259C6.09375 10.0888 6.21763 13.4404 6.21763 14.9993C6.21763 16.5583 6.09375 19.9058 6.65089 21.3167C6.83273 21.7776 7.10732 22.1961 7.45761 22.5464C7.80791 22.8967 8.22646 23.1713 8.68728 23.3531C10.0935 23.9083 13.4417 23.7837 15.0027 23.7837C16.5636 23.7837 19.9071 23.9129 21.3174 23.3531C21.7782 23.1713 22.1968 22.8967 22.5471 22.5464C22.8974 22.1961 23.172 21.7776 23.3538 21.3167C23.9129 19.9105 23.7844 16.5589 23.7844 15C23.7844 13.4411 23.9129 10.0942 23.3538 8.68326L23.3511 8.68259ZM15 20.4911C13.914 20.4911 12.8523 20.169 11.9493 19.5657C11.0463 18.9623 10.3425 18.1047 9.92691 17.1013C9.5113 16.098 9.40256 14.9939 9.61444 13.9287C9.82631 12.8636 10.3493 11.8852 11.1172 11.1172C11.8852 10.3493 12.8636 9.82631 13.9287 9.61444C14.9939 9.40256 16.098 9.5113 17.1013 9.92691C18.1047 10.3425 18.9623 11.0463 19.5657 11.9493C20.169 12.8523 20.4911 13.914 20.4911 15C20.492 15.7213 20.3505 16.4358 20.0749 17.1024C19.7992 17.769 19.3948 18.3747 18.8847 18.8847C18.3747 19.3948 17.769 19.7992 17.1024 20.0749C16.4358 20.3505 15.7213 20.492 15 20.4911ZM20.7174 10.5603C20.4639 10.5604 20.216 10.4853 20.0052 10.3446C19.7943 10.2038 19.6299 10.0037 19.5328 9.76952C19.4357 9.53533 19.4102 9.2776 19.4596 9.02894C19.509 8.78027 19.631 8.55183 19.8102 8.37251C19.9894 8.1932 20.2178 8.07106 20.4664 8.02155C20.7151 7.97204 20.9728 7.99739 21.2071 8.09437C21.4413 8.19136 21.6415 8.35564 21.7824 8.56643C21.9233 8.77722 21.9984 9.02505 21.9984 9.27857C21.9991 9.44693 21.9666 9.61377 21.9027 9.76952C21.8388 9.92527 21.7447 10.0669 21.626 10.1862C21.5072 10.3055 21.366 10.4002 21.2106 10.4649C21.0551 10.5295 20.8884 10.5629 20.7201 10.5629L20.7174 10.5603ZM26.7857 0H3.21429C2.3618 0 1.54424 0.338647 0.941442 0.941443C0.338647 1.54424 0 2.3618 0 3.21429L0 26.7857C0 27.6382 0.338647 28.4558 0.941442 29.0586C1.54424 29.6614 2.3618 30 3.21429 30H26.7857C27.6382 30 28.4558 29.6614 29.0586 29.0586C29.6614 28.4558 30 27.6382 30 26.7857V3.21429C30 2.3618 29.6614 1.54424 29.0586 0.941443C28.4558 0.338647 27.6382 0 26.7857 0ZM25.6393 19.4196C25.5529 21.1359 25.1612 22.6567 23.9083 23.9062C22.6554 25.1558 21.1359 25.5556 19.4217 25.6373C17.6531 25.7371 12.3509 25.7371 10.5824 25.6373C8.86607 25.5509 7.35067 25.1585 6.09576 23.9062C4.84085 22.654 4.44643 21.1326 4.36473 19.4196C4.26496 17.6504 4.26496 12.3475 4.36473 10.5804C4.45112 8.86406 4.83817 7.3433 6.09576 6.09375C7.35335 4.8442 8.87277 4.44911 10.5824 4.36741C12.3509 4.26763 17.6531 4.26763 19.4217 4.36741C21.1379 4.45379 22.658 4.84621 23.9083 6.09844C25.1585 7.35067 25.5576 8.8721 25.6393 10.5884C25.7391 12.3509 25.7391 17.6491 25.6393 19.4196Z" fill="black"></path>
    </g>
    <defs>
      <clipPath id="clip0_20_785">
        <rect width="30" height="30" fill="white"></rect>
      </clipPath>
    </defs>
  </symbol>
  <symbol fill="none" xmlns="http://www.w3.org/2000/svg" viewBox="0 0 29 30" id="twitch">
    <path d="M1.99083 -0.00480652L-0.00390625 5.14475V26.1916H7.087V29.9952H11.0765L14.8406 26.1916H20.6061L28.3597 18.3568V-0.00480652H1.99083ZM25.7023 17.0108L21.2688 21.4907H14.1779L10.4138 25.2943V21.4907H4.42957V2.68046H25.7023V17.0108ZM21.2688 7.83001V15.6581H18.6114V7.83001H21.2688ZM14.1779 7.83001V15.6581H11.5205V7.83001H14.1779Z" fill="black"></path>
  </symbol>
</svg>

<svg aria-hidden="true" width="30" height="30" xmlns="http://www.w3.org/2000/svg" overflow="hidden"><defs><symbol id="youtube" viewBox="0 0 30 30"><path d="M23.658 22.383h-1.545l.007-.904c0-.402.327-.73.728-.73h.098c.401 0 .73.328.73.73l-.018.904Zm-5.794-1.937c-.392 0-.713.265-.713.59v4.397c0 .325.32.59.713.59.393 0 .714-.265.714-.59v-4.397c0-.325-.32-.59-.714-.59Zm9.409-2.46v8.366c0 2.006-1.727 3.648-3.837 3.648H7.656c-2.112 0-3.838-1.642-3.838-3.648v-8.366c0-2.007 1.726-3.649 3.838-3.649h15.78c2.11 0 3.837 1.643 3.837 3.65ZM8.708 27.26v-8.812h1.955v-1.305l-5.214-.008v1.284l1.628.004v8.837h1.631Zm5.864-7.5h-1.63v4.706c0 .68.04 1.021-.003 1.141-.133.365-.729.752-.961.04-.04-.125-.005-.502-.006-1.149l-.006-4.738h-1.622l.005 4.664c.001.715-.016 1.248.006 1.49.04.428.025.927.419 1.211.734.533 2.14-.08 2.492-.84l-.003.971 1.31.002V19.76h-.001Zm5.217 5.389-.003-3.916c-.002-1.493-1.11-2.387-2.614-1.18l.007-2.911-1.63.002-.007 10.05 1.34-.02.121-.625c1.713 1.583 2.789.498 2.786-1.4Zm5.104-.52-1.223.007-.003.167v.688a.67.67 0 0 1-.668.667h-.24a.67.67 0 0 1-.668-.667v-1.809h2.8V22.62c0-.776-.02-1.552-.083-1.996-.2-1.403-2.156-1.626-3.143-.908-.31.225-.547.525-.685.929-.14.403-.208.955-.208 1.655v2.335c0 3.882 4.68 3.334 4.121-.005Zm-6.272-12.677c.084.206.214.373.392.5.175.123.4.186.667.186.235 0 .444-.064.625-.196.18-.132.333-.328.457-.59l-.03.645h1.817V4.706h-1.43v6.064a.599.599 0 0 1-.597.597.599.599 0 0 1-.595-.598V4.707h-1.494V9.96c0 .67.012 1.115.032 1.342.02.224.071.44.156.649Zm-5.51-4.4c0-.748.063-1.332.185-1.753.124-.42.347-.757.669-1.011.32-.256.732-.384 1.232-.384.42 0 .781.084 1.082.246.303.164.536.377.698.64.164.263.276.534.336.81.061.282.091.705.091 1.277v1.97c0 .723-.029 1.254-.084 1.592a2.538 2.538 0 0 1-.358.946 1.707 1.707 0 0 1-.7.648c-.287.14-.616.21-.987.21-.414 0-.763-.058-1.05-.179-.29-.12-.512-.3-.671-.54a2.407 2.407 0 0 1-.342-.873c-.068-.341-.1-.854-.1-1.537V7.552Zm1.424 3.095c0 .44.326.801.723.801.397 0 .722-.36.722-.802V6.5c0-.44-.325-.8-.722-.8-.397 0-.723.36-.723.8v4.147Zm-5.03 2.094h1.714l.002-5.976 2.027-5.118h-1.876l-1.078 3.802-1.092-3.813H7.345l2.156 5.132.003 5.973Z"/></symbol><symbol id="vk" viewBox="0 0 30 30"><g clip-path="url(#clip0_12_222)"><path d="M19.605 0h-9.21C1.99 0 0 1.99 0 10.395v9.21C0 28.01 1.99 30 10.395 30h9.21C28.01 30 30 28.01 30 19.605v-9.21C30 1.99 27.989 0 19.605 0Zm4.615 21.404h-2.18c-.825 0-1.08-.657-2.563-2.159-1.29-1.25-1.862-1.419-2.18-1.419-.445 0-.572.128-.572.741v1.97c0 .53-.169.847-1.566.847-2.308 0-4.87-1.398-6.669-4.003-2.71-3.81-3.453-6.668-3.453-7.261 0-.317.128-.614.742-.614h2.18c.55 0 .762.254.975.846 1.079 3.113 2.879 5.844 3.62 5.844.275 0 .402-.127.402-.825v-3.22c-.085-1.482-.868-1.608-.868-2.137 0-.255.212-.509.55-.509h3.43c.466 0 .634.254.634.804v4.341c0 .465.213.635.34.635.274 0 .508-.17 1.015-.678 1.568-1.757 2.69-4.467 2.69-4.467.148-.318.402-.614.953-.614h2.18c.656 0 .805.338.656.804-.275 1.271-2.942 5.039-2.942 5.039-.233.381-.318.55 0 .975.232.317.995.973 1.503 1.566.932 1.059 1.65 1.948 1.842 2.563.212.612-.107.93-.72.93h.001Z"/></g><defs><clipPath id="clip0_12_222"><path d="M0 0h30v30H0z"/></clipPath></defs></symbol><symbol id="facebook" viewBox="0 0 30 30"><g clip-path="url(#clip0_12_224)"><path d="M5.478 0A5.466 5.466 0 0 0 0 5.478v19.044A5.466 5.466 0 0 0 5.478 30H15.8V18.272h-3.102v-4.223H15.8v-3.607c0-2.834 1.832-5.437 6.053-5.437 1.71 0 2.973.164 2.973.164l-.1 3.944S23.439 9.1 22.032 9.1c-1.522 0-1.766.702-1.766 1.866v3.083h4.582l-.2 4.223h-4.382V30h4.257A5.466 5.466 0 0 0 30 24.522V5.478A5.466 5.466 0 0 0 24.522 0H5.478Z"/></g><defs><clipPath id="clip0_12_224"><path d="M0 0h30v30H0z"/></clipPath></defs></symbol><symbol id="twitter" viewBox="0 0 30 30"><g clip-path="url(#clip0_12_226)"><path d="M26.786 0H3.214A3.215 3.215 0 0 0 0 3.214v23.572A3.215 3.215 0 0 0 3.214 30h23.572A3.215 3.215 0 0 0 30 26.786V3.214A3.215 3.215 0 0 0 26.786 0ZM23.51 10.634c.014.187.014.382.014.57 0 5.805-4.42 12.495-12.496 12.495-2.491 0-4.801-.724-6.743-1.97.355.041.696.055 1.058.055a8.805 8.805 0 0 0 5.45-1.875 4.398 4.398 0 0 1-4.104-3.047c.676.1 1.285.1 1.982-.08a4.392 4.392 0 0 1-3.516-4.313v-.054a4.39 4.39 0 0 0 1.982.556 4.383 4.383 0 0 1-1.955-3.656c0-.817.214-1.567.596-2.217a12.47 12.47 0 0 0 9.054 4.594c-.623-2.98 1.607-5.397 4.285-5.397 1.266 0 2.404.529 3.208 1.386a8.605 8.605 0 0 0 2.786-1.058 4.38 4.38 0 0 1-1.929 2.417 8.74 8.74 0 0 0 2.531-.683 9.244 9.244 0 0 1-2.203 2.277Z"/></g><defs><clipPath id="clip0_12_226"><path d="M0 0h30v30H0z"/></clipPath></defs></symbol><symbol id="twitch" viewBox="0 0 30 30"><g clip-path="url(#clip0_12_228)"><path d="m1.991-.005-1.995 5.15v21.047h7.091v3.803h3.99l3.764-3.803h5.765l7.754-7.835V-.005H1.99Zm23.711 17.016-4.433 4.48h-7.091l-3.764 3.803v-3.803H4.43V2.68h21.272v14.33ZM21.27 7.83v7.828h-2.657V7.83h2.657Zm-7.091 0v7.828h-2.657V7.83h2.657Z"/></g><defs><clipPath id="clip0_12_228"><path d="M0 0h28.364v30H0z"/></clipPath></defs></symbol><symbol id="instagram" viewBox="0 0 30 30"><g clip-path="url(#clip0_12_230)"><path d="M15 11.428a3.573 3.573 0 1 0 .003 7.146A3.573 3.573 0 0 0 15 11.428Zm8.351-2.745a3.615 3.615 0 0 0-2.036-2.037c-1.407-.555-4.755-.43-6.315-.43-1.56 0-4.905-.13-6.315.43a3.616 3.616 0 0 0-2.037 2.037c-.554 1.406-.43 4.757-.43 6.316 0 1.56-.124 4.907.433 6.318a3.616 3.616 0 0 0 2.036 2.036c1.407.555 4.755.43 6.316.43 1.56 0 4.904.13 6.314-.43a3.616 3.616 0 0 0 2.037-2.036c.559-1.407.43-4.758.43-6.317 0-1.559.129-4.906-.43-6.317h-.003ZM15 20.49a5.492 5.492 0 1 1 0-10.983 5.492 5.492 0 0 1 0 10.983Zm5.717-9.93a1.282 1.282 0 1 1 1.186-.791 1.28 1.28 0 0 1-1.183.793l-.003-.003ZM26.786 0H3.214A3.214 3.214 0 0 0 0 3.214v23.572A3.214 3.214 0 0 0 3.214 30h23.572A3.214 3.214 0 0 0 30 26.786V3.214A3.214 3.214 0 0 0 26.786 0Zm-1.147 19.42c-.086 1.716-.478 3.237-1.73 4.486-1.254 1.25-2.773 1.65-4.487 1.731-1.769.1-7.071.1-8.84 0-1.716-.086-3.231-.479-4.486-1.73-1.255-1.253-1.65-2.774-1.731-4.487-.1-1.77-.1-7.073 0-8.84.086-1.716.473-3.237 1.73-4.486 1.258-1.25 2.778-1.645 4.487-1.727 1.769-.1 7.071-.1 8.84 0 1.716.087 3.236.48 4.486 1.731 1.25 1.253 1.65 2.774 1.731 4.49.1 1.763.1 7.061 0 8.832Z"/></g><defs><clipPath id="clip0_12_230"><path d="M0 0h30v30H0z"/></clipPath></defs></symbol></defs></svg>
